public/images/icon.svg

<svg width="512" height="512" viewBox="0 0 512 512" fill="none" xmlns="http://www.w3.org/2000/svg"><path d="m205.2 180.183 18.535-154.904c1.765-9.709 4.413-16.329 7.944-19.86 3.53-3.53 10.15-5.295 19.859-5.295h6.62c9.709 0 16.329 1.765 19.859 5.296 3.531 3.53 6.178 10.15 7.944 19.86l14.564 154.903 144.311-64.874c15.006-7.944 26.922-3.531 35.747 13.239 2.648 5.296 3.972 11.033 3.972 17.212 0 6.178-3.972 12.357-11.916 18.535l-131.072 90.029 132.396 95.325c7.944 6.178 11.916 12.358 11.916 18.536 0 6.178-1.766 11.916-5.296 17.211l-2.648 1.324c-5.296 8.826-10.149 14.122-14.563 15.888-4.414.882-11.474-.882-21.184-5.296l-139.015-64.874-18.536 152.255c-1.766 9.71-4.413 16.33-7.944 19.86-3.53 3.529-10.15 5.296-19.859 5.296h-5.296c-9.709 0-16.329-1.767-19.859-5.296-3.531-3.53-6.179-10.15-7.944-19.86l-15.887-152.255L64.86 397.312c-5.296 2.648-11.033 3.972-17.212 3.972-6.178 0-11.915-5.296-17.211-15.888-3.53-3.529-5.296-9.267-5.296-17.211 0-7.944 3.972-15.006 11.916-21.183l129.748-90.03-129.748-94.001c-7.944-6.179-11.916-12.357-11.916-18.535 0-4.414 2.207-11.033 6.62-19.86 5.296-8.826 10.15-13.681 14.563-14.563 5.296-1.766 12.358-.442 21.184 3.972L205.2 180.183Z" fill="#000"/></svg>

<svg width="512" height="512" viewBox="0 0 512 512" fill="none" xmlns="http://www.w3.org/2000/svg">
<path d="M205.2 180.183L223.735 25.279C225.5 15.57 228.148 8.94999 231.679 5.41899C235.209 1.88899 241.829 0.123993 251.538 0.123993H258.158C267.867 0.123993 274.487 1.88899 278.017 5.41999C281.548 8.94999 284.195 15.57 285.961 25.28L300.525 180.183L444.836 115.309C459.842 107.365 471.758 111.778 480.583 128.548C483.231 133.844 484.555 139.581 484.555 145.76C484.555 151.938 480.583 158.117 472.639 164.295L341.567 254.324L473.963 349.649C481.907 355.827 485.879 362.007 485.879 368.185C485.879 374.363 484.113 380.101 480.583 385.396L477.935 386.72C472.639 395.546 467.786 400.842 463.372 402.608C458.958 403.49 451.898 401.726 442.188 397.312L303.173 332.438L284.637 484.693C282.871 494.403 280.224 501.023 276.693 504.553C273.163 508.082 266.543 509.849 256.834 509.849H251.538C241.829 509.849 235.209 508.082 231.679 504.553C228.148 501.023 225.5 494.403 223.735 484.693L207.848 332.438L64.86 397.312C59.564 399.96 53.827 401.284 47.648 401.284C41.47 401.284 35.733 395.988 30.437 385.396C26.907 381.867 25.141 376.129 25.141 368.185C25.141 360.241 29.113 353.179 37.057 347.002L166.805 256.972L37.057 162.971C29.113 156.792 25.141 150.614 25.141 144.436C25.141 140.022 27.348 133.403 31.761 124.576C37.057 115.75 41.911 110.895 46.324 110.013C51.62 108.247 58.682 109.571 67.508 113.985L205.2 180.183Z" fill="#152035"/>
</svg>
